icons/flag-16.svg

<svg width="16" height="16" viewBox="0 0 16 16" fill="none" xmlns="http://www.w3.org/2000/svg">
<path d="M15 10.2108V2.22083C15 2.14083 14.98 2.07083 14.95 1.99083C14.95 1.97083 14.95 1.95083 14.94 1.93083C14.92 1.88083 14.88 1.84083 14.85 1.80083C14.82 1.76083 14.81 1.72083 14.78 1.69083C14.76 1.67083 14.74 1.67083 14.72 1.65083C14.66 1.60083 14.6 1.56083 14.53 1.53083C11.75 0.420826 9.67 1.28083 7.84 2.03083C6.11 2.75083 4.6 3.36083 2.5 2.60083V1.97083C2.5 1.56083 2.16 1.22083 1.75 1.22083C1.34 1.22083 1 1.56083 1 1.97083V14.4708C1 14.8808 1.34 15.2208 1.75 15.2208C2.16 15.2208 2.5 14.8808 2.5 14.4708V4.18083C3.16 4.37083 3.78 4.45083 4.37 4.45083C5.91 4.45083 7.22 3.91083 8.42 3.41083C10.08 2.72083 11.54 2.14083 13.51 2.76083V9.19083C11.23 8.63083 9.45 9.36083 7.85 10.0308C6.6 10.5508 5.44 11.0308 4.06 10.9508C3.68 10.9208 3.29 11.2408 3.26 11.6508C3.23 12.0608 3.55 12.4208 3.96 12.4508C4.1 12.4508 4.25 12.4608 4.38 12.4608C5.9 12.4608 7.18 11.9308 8.42 11.4208C10.21 10.6808 11.76 10.0408 13.98 10.9208C14.04 10.9408 14.1 10.9508 14.17 10.9508C14.2 10.9508 14.23 10.9708 14.26 10.9708C14.49 10.9708 14.71 10.8508 14.85 10.6608C14.89 10.6108 14.93 10.5708 14.95 10.5108C14.97 10.4608 14.97 10.4108 14.98 10.3608C14.98 10.3208 15.01 10.2808 15.01 10.2308L15 10.2108Z" fill="currentColor"/>
</svg>

<svg xmlns="http://www.w3.org/2000/svg" width="16" height="16" viewBox="0 0 16 16"><path d="M15 10.211v-7.99c0-.08-.02-.15-.05-.23 0-.02 0-.04-.01-.06-.02-.05-.06-.09-.09-.13s-.04-.08-.07-.11c-.02-.02-.04-.02-.06-.04a.8.8 0 0 0-.19-.12c-2.78-1.11-4.86-.25-6.69.5-1.73.72-3.24 1.33-5.34.57v-.63c0-.41-.34-.75-.75-.75s-.75.34-.75.75v12.5c0 .41.34.75.75.75s.75-.34.75-.75V4.181c.66.19 1.28.27 1.87.27 1.54 0 2.85-.54 4.05-1.04 1.66-.69 3.12-1.27 5.09-.65v6.43c-2.28-.56-4.06.17-5.66.84-1.25.52-2.41 1-3.79.92-.38-.03-.77.29-.8.7s.29.77.7.8c.14 0 .29.01.42.01 1.52 0 2.8-.53 4.04-1.04 1.79-.74 3.34-1.38 5.56-.5.06.02.12.03.19.03.03 0 .06.02.09.02.23 0 .45-.12.59-.31.04-.05.08-.09.1-.15.02-.05.02-.1.03-.15 0-.04.03-.08.03-.13z"/></svg>
